X: 2
T: Tennessee Wagoner
R: reel
M: 4/4
L: 1/8
K: C
gf |: ec2c c2cB | cdef gedc | BG2G G2DE | GABc d2gf |
| ec2c c2cB | cdef g2ef | gfga gfed |1 ec2B c2gf :|2 ec2B c2G2,|
|: C3,D E2G2 | cBcd cAGE | [G4,D] [G,4D] | G,A,B,C DB,CD |
| C2,C,D EGAB | cBcd edef | gfga gfed | ec2B c2c2 :|

